data/tilesets/flags/newzealand.svg

<?xml version="1.0" encoding="UTF-8" standalone="no"?>
<svg
   xmlns:dc="http://purl.org/dc/elements/1.1/"
   xmlns:cc="http://creativecommons.org/ns#"
   xmlns:rdf="http://www.w3.org/1999/02/22-rdf-syntax-ns#"
   xmlns:svg="http://www.w3.org/2000/svg"
   xmlns="http://www.w3.org/2000/svg"
   xmlns:sodipodi="http://sodipodi.sourceforge.net/DTD/sodipodi-0.dtd"
   xmlns:inkscape="http://www.inkscape.org/namespaces/inkscape"
   id="svg1"
   sodipodi:version="0.32"
   width="749.99994pt"
   height="499.99686pt"
   sodipodi:docname="newzealand.svg"
   inkscape:version="1.0.2 (e86c870879, 2021-01-15)"
   version="1.1">
  <metadata
     id="metadata3599">
    <rdf:RDF>
      <cc:Work
         rdf:about="">
        <dc:format>image/svg+xml</dc:format>
        <dc:type
           rdf:resource="http://purl.org/dc/dcmitype/StillImage" />
      </cc:Work>
    </rdf:RDF>
  </metadata>
  <defs
     id="defs3" />
  <sodipodi:namedview
     id="base"
     inkscape:zoom="0.42921382"
     inkscape:cx="521.49543"
     inkscape:cy="278.08759"
     inkscape:window-width="812"
     inkscape:window-height="595"
     inkscape:window-x="55"
     inkscape:window-y="103"
     inkscape:current-layer="svg1"
     inkscape:document-rotation="0"
     showgrid="false"
     inkscape:window-maximized="0" />
  <rect
     height="666.66248"
     width="999.99994"
     y="0"
     x="0"
     id="rect124"
     style="fill:#000066;fill-opacity:1;fill-rule:nonzero;stroke:none;stroke-width:1pt;stroke-linecap:butt;stroke-linejoin:miter;stroke-opacity:1" />
  <path
     id="path146"
     d="M 0,6.6210937e-6 V 37.267547 L 444.09832,333.33127 h 55.90166 V 296.06372 L 55.901664,6.6210937e-6 Z m 499.99998,0 V 37.266997 L 55.901664,333.33127 H 0 V 296.0626 L 444.09832,6.6210937e-6 Z"
     style="fill:#ffffff;fill-opacity:1;fill-rule:nonzero;stroke:none;stroke-width:1pt;stroke-linecap:butt;stroke-linejoin:miter;stroke-opacity:1" />
  <path
     id="path136"
     d="M 208.33333,6.6210937e-6 V 333.33127 h 83.33332 V 6.6210937e-6 Z M 0,111.11043 V 222.22084 H 499.99998 V 111.11043 Z"
     style="font-size:12px;fill:#ffffff;stroke-width:1pt" />
  <path
     id="path141"
     d="m 0,133.33251 v 66.66625 H 499.99998 V 133.33251 Z M 224.99999,6.6210937e-6 V 333.33127 h 50 V 6.6210937e-6 Z"
     style="font-size:12px;fill:#cc0000;fill-opacity:1;stroke-width:1pt" />
  <g
     id="g141"
     transform="matrix(9.84506,0,0,9.84506,-136.2972,41.622359)">
    <path
       id="path133"
       d="m 90,7.9949625 0.899187,2.7674125 h 2.90983 l -2.354102,1.710356 0.899187,2.767412 L 90,13.529788 l -2.354102,1.710355 0.899187,-2.767412 -2.354102,-1.710356 h 2.90983 z"
       style="fill:#ffffff;fill-opacity:1;fill-rule:nonzero;stroke:none;stroke-width:1pt;stroke-linecap:butt;stroke-linejoin:miter;stroke-opacity:1" />
    <path
       id="path132"
       d="m 90,8.8456133 0.708204,2.1796277 H 93 l -1.854102,1.347084 0.708204,2.179627 L 90,13.204868 88.145898,14.551952 88.854102,12.372325 87,11.025241 h 2.291796 z"
       style="fill:#cc0000;fill-opacity:1;fill-rule:nonzero;stroke:none;stroke-width:1pt;stroke-linecap:butt;stroke-linejoin:miter;stroke-opacity:1" />
  </g>
  <path
     id="path150"
     d="M 0,333.33127 166.66666,222.22084 h 37.2675 L 37.267832,333.33127 Z M 0,6.6210937e-6 166.66666,111.11043 h -37.2675 L 0,24.845077 Z M 296.06582,111.11043 462.73248,6.6210937e-6 h 37.2675 L 333.33332,111.11043 Z M 499.99998,333.33127 333.33332,222.22084 h 37.2675 l 129.39916,86.26502 z"
     style="fill:#cc0000;fill-opacity:1;fill-rule:nonzero;stroke:none;stroke-width:1pt;stroke-linecap:butt;stroke-linejoin:miter;stroke-opacity:1" />
  <g
     transform="matrix(9.84506,0,0,9.84506,-247.8284,176.67124)"
     id="g132">
    <path
       id="path134"
       d="m 90,7.9949625 0.899187,2.7674125 h 2.90983 l -2.354102,1.710356 0.899187,2.767412 L 90,13.529788 l -2.354102,1.710355 0.899187,-2.767412 -2.354102,-1.710356 h 2.90983 z"
       style="fill:#ffffff;fill-opacity:1;fill-rule:nonzero;stroke:none;stroke-width:1pt;stroke-linecap:butt;stroke-linejoin:miter;stroke-opacity:1" />
    <path
       id="path135"
       d="m 90,8.8456133 0.708204,2.1796277 H 93 l -1.854102,1.347084 0.708204,2.179627 L 90,13.204868 88.145898,14.551952 88.854102,12.372325 87,11.025241 h 2.291796 z"
       style="fill:#cc0000;fill-opacity:1;fill-rule:nonzero;stroke:none;stroke-width:1pt;stroke-linecap:butt;stroke-linejoin:miter;stroke-opacity:1" />
  </g>
  <g
     transform="matrix(9.801797,0,0,9.801797,-30.45316,30.330459)"
     id="g139">
    <path
       id="path138"
       d="m 90,20.647738 0.75263,2.316356 h 2.435561 l -1.97041,1.431587 0.752629,2.316356 L 90,25.28045 l -1.97041,1.431587 0.752629,-2.316356 -1.97041,-1.431587 h 2.435561 z"
       style="fill:#ffffff;fill-opacity:1;fill-rule:nonzero;stroke:none;stroke-width:1pt;stroke-linecap:butt;stroke-linejoin:miter;stroke-opacity:1" />
    <path
       id="path137"
       d="m 90,21.371344 0.59017,1.816357 H 92.5 l -1.545085,1.12257 0.59017,1.816356 L 90,25.004057 88.454915,26.126627 89.045085,24.310271 87.5,23.187701 h 1.90983 z"
       style="fill:#cc0000;fill-opacity:1;fill-rule:nonzero;stroke:none;stroke-width:1pt;stroke-linecap:butt;stroke-linejoin:miter;stroke-opacity:1" />
  </g>
  <g
     id="g3683"
     transform="matrix(1.110265,0,0,1.110265,-82.85004,-54.485791)">
    <path
       style="fill:#ffffff;fill-opacity:1;fill-rule:evenodd;stroke:none;stroke-width:1pt;stroke-linecap:butt;stroke-linejoin:miter;stroke-opacity:1"
       d="m 749.99997,464.02577 8.23915,25.35749 h 26.66244 l -21.57037,15.67179 8.23915,25.35749 -21.57037,-15.67179 -21.57037,15.67179 8.23915,-25.35749 -21.57037,-15.67179 h 26.66244 z"
       id="path142" />
    <path
       style="fill:#cc0000;fill-opacity:1;fill-rule:evenodd;stroke:none;stroke-width:1pt;stroke-linecap:butt;stroke-linejoin:miter;stroke-opacity:1"
       d="m 749.99997,470.05583 6.88532,21.19082 h 22.28135 l -18.026,13.09665 6.88532,21.19082 -18.02599,-13.09665 -18.02599,13.09665 6.88532,-21.19082 -18.026,-13.09665 h 22.28135 z"
       id="path143" />
  </g>
</svg>

<?xml version="1.0" encoding="UTF-8" standalone="no"?>
<!-- Created with Sodipodi ("http://www.sodipodi.com/") -->
<svg
   xmlns:dc="http://purl.org/dc/elements/1.1/"
   xmlns:cc="http://web.resource.org/cc/"
   xmlns:rdf="http://www.w3.org/1999/02/22-rdf-syntax-ns#"
   xmlns:svg="http://www.w3.org/2000/svg"
   xmlns="http://www.w3.org/2000/svg"
   xmlns:sodipodi="http://inkscape.sourceforge.net/DTD/sodipodi-0.dtd"
   xmlns:inkscape="http://www.inkscape.org/namespaces/inkscape"
   id="svg1"
   sodipodi:version="0.32"
   width="1000"
   height="533.33000pt"
   sodipodi:docname="newzealand.svg"
   inkscape:version="0.42"
   sodipodi:docbase="/Users/daniel/Desktop/updated flags">
  <metadata
     id="metadata3599">
    <rdf:RDF>
      <cc:Work
         rdf:about="">
        <dc:format>image/svg+xml</dc:format>
        <dc:type
           rdf:resource="http://purl.org/dc/dcmitype/StillImage" />
      </cc:Work>
    </rdf:RDF>
  </metadata>
  <defs
     id="defs3" />
  <sodipodi:namedview
     id="base"
     inkscape:zoom="0.42921382"
     inkscape:cx="521.49543"
     inkscape:cy="278.08765"
     inkscape:window-width="701"
     inkscape:window-height="507"
     inkscape:window-x="55"
     inkscape:window-y="103"
     inkscape:current-layer="svg1" />
  <rect
     height="666.66248"
     width="999.99994"
     y="6.1035156e-05"
     x="0.0000000"
     id="rect124"
     style="fill:#000066;fill-opacity:1.0000000;fill-rule:nonzero;stroke:none;stroke-width:1.0000000pt;stroke-linecap:butt;stroke-linejoin:miter;stroke-opacity:1.0000000" />
  <path
     id="path146"
     d="M 0.0000000,6.7656250e-05 L 0.0000000,37.267608 L 444.09832,333.33133 L 499.99998,333.33133 L 499.99998,296.06378 L 55.901664,6.7656250e-05 L 0.0000000,6.7656250e-05 z M 499.99998,6.7656250e-05 L 499.99998,37.267058 L 55.901664,333.33133 L 0.0000000,333.33133 L 0.0000000,296.06266 L 444.09832,6.7656250e-05 L 499.99998,6.7656250e-05 z "
     style="fill:#ffffff;fill-opacity:1.0000000;fill-rule:nonzero;stroke:none;stroke-width:1.0000000pt;stroke-linecap:butt;stroke-linejoin:miter;stroke-opacity:1.0000000" />
  <path
     id="path136"
     d="M 208.33333,6.7656250e-05 L 208.33333,333.33133 L 291.66665,333.33133 L 291.66665,6.7656250e-05 L 208.33333,6.7656250e-05 z M 0.0000000,111.11049 L 0.0000000,222.22090 L 499.99998,222.22090 L 499.99998,111.11049 L 0.0000000,111.11049 z "
     style="font-size:12.000000px;fill:#ffffff;stroke-width:1.0000000pt" />
  <path
     id="path141"
     d="M 0.0000000,133.33257 L 0.0000000,199.99882 L 499.99998,199.99882 L 499.99998,133.33257 L 0.0000000,133.33257 z M 224.99999,6.7656250e-05 L 224.99999,333.33133 L 274.99999,333.33133 L 274.99999,6.7656250e-05 L 224.99999,6.7656250e-05 z "
     style="font-size:12.000000px;fill:#cc0000;fill-opacity:1.0000000;stroke-width:1.0000000pt" />
  <g
     id="g141"
     transform="matrix(9.845060,0.000000,0.000000,9.845060,-136.2972,41.62242)">
    <path
       id="path133"
       d="M 90.000000,7.9949625 L 90.899187,10.762375 L 93.809017,10.762375 L 91.454915,12.472731 L 92.354102,15.240143 L 90.000000,13.529788 L 87.645898,15.240143 L 88.545085,12.472731 L 86.190983,10.762375 L 89.100813,10.762375 L 90.000000,7.9949625 z "
       style="fill:#ffffff;fill-opacity:1.0000000;fill-rule:nonzero;stroke:none;stroke-width:1.0000000pt;stroke-linecap:butt;stroke-linejoin:miter;stroke-opacity:1.0000000" />
    <path
       id="path132"
       d="M 90.000000,8.8456133 L 90.708204,11.025241 L 93.000000,11.025241 L 91.145898,12.372325 L 91.854102,14.551952 L 90.000000,13.204868 L 88.145898,14.551952 L 88.854102,12.372325 L 87.000000,11.025241 L 89.291796,11.025241 L 90.000000,8.8456133 z "
       style="fill:#cc0000;fill-opacity:1.0000000;fill-rule:nonzero;stroke:none;stroke-width:1.0000000pt;stroke-linecap:butt;stroke-linejoin:miter;stroke-opacity:1.0000000" />
  </g>
  <path
     id="path150"
     d="M 0.0000000,333.33133 L 166.66666,222.22090 L 203.93416,222.22090 L 37.267832,333.33133 L 0.0000000,333.33133 z M 0.0000000,6.7656250e-05 L 166.66666,111.11049 L 129.39916,111.11049 L 0.0000000,24.845138 L 0.0000000,6.7656250e-05 z M 296.06582,111.11049 L 462.73248,6.7656250e-05 L 499.99998,6.7656250e-05 L 333.33332,111.11049 L 296.06582,111.11049 z M 499.99998,333.33133 L 333.33332,222.22090 L 370.60082,222.22090 L 499.99998,308.48592 L 499.99998,333.33133 z "
     style="fill:#cc0000;fill-opacity:1.0000000;fill-rule:nonzero;stroke:none;stroke-width:1.0000000pt;stroke-linecap:butt;stroke-linejoin:miter;stroke-opacity:1.0000000" />
  <g
     transform="matrix(9.845060,0.000000,0.000000,9.845060,-247.8284,176.6713)"
     id="g132">
    <path
       id="path134"
       d="M 90.000000,7.9949625 L 90.899187,10.762375 L 93.809017,10.762375 L 91.454915,12.472731 L 92.354102,15.240143 L 90.000000,13.529788 L 87.645898,15.240143 L 88.545085,12.472731 L 86.190983,10.762375 L 89.100813,10.762375 L 90.000000,7.9949625 z "
       style="fill:#ffffff;fill-opacity:1.0000000;fill-rule:nonzero;stroke:none;stroke-width:1.0000000pt;stroke-linecap:butt;stroke-linejoin:miter;stroke-opacity:1.0000000" />
    <path
       id="path135"
       d="M 90.000000,8.8456133 L 90.708204,11.025241 L 93.000000,11.025241 L 91.145898,12.372325 L 91.854102,14.551952 L 90.000000,13.204868 L 88.145898,14.551952 L 88.854102,12.372325 L 87.000000,11.025241 L 89.291796,11.025241 L 90.000000,8.8456133 z "
       style="fill:#cc0000;fill-opacity:1.0000000;fill-rule:nonzero;stroke:none;stroke-width:1.0000000pt;stroke-linecap:butt;stroke-linejoin:miter;stroke-opacity:1.0000000" />
  </g>
  <g
     transform="matrix(9.801797,0.000000,0.000000,9.801797,-30.45316,30.33052)"
     id="g139">
    <path
       id="path138"
       d="M 90.000000,20.647738 L 90.752630,22.964094 L 93.188191,22.964094 L 91.217781,24.395681 L 91.970410,26.712037 L 90.000000,25.280450 L 88.029590,26.712037 L 88.782219,24.395681 L 86.811809,22.964094 L 89.247370,22.964094 L 90.000000,20.647738 z "
       style="fill:#ffffff;fill-opacity:1.0000000;fill-rule:nonzero;stroke:none;stroke-width:1.0000000pt;stroke-linecap:butt;stroke-linejoin:miter;stroke-opacity:1.0000000" />
    <path
       id="path137"
       d="M 90.000000,21.371344 L 90.590170,23.187701 L 92.500000,23.187701 L 90.954915,24.310271 L 91.545085,26.126627 L 90.000000,25.004057 L 88.454915,26.126627 L 89.045085,24.310271 L 87.500000,23.187701 L 89.409830,23.187701 L 90.000000,21.371344 z "
       style="fill:#cc0000;fill-opacity:1.0000000;fill-rule:nonzero;stroke:none;stroke-width:1.0000000pt;stroke-linecap:butt;stroke-linejoin:miter;stroke-opacity:1.0000000" />
  </g>
  <g
     id="g3683"
     transform="matrix(1.110265,0.000000,0.000000,1.110265,-82.85004,-54.48573)">
    <path
       style="fill:#ffffff;fill-opacity:1.0000000;fill-rule:evenodd;stroke:none;stroke-width:1.0000000pt;stroke-linecap:butt;stroke-linejoin:miter;stroke-opacity:1.0000000"
       d="M 749.99997,464.02577 L 758.23912,489.38326 L 784.90156,489.38326 L 763.33119,505.05505 L 771.57034,530.41254 L 749.99997,514.74075 L 728.42960,530.41254 L 736.66875,505.05505 L 715.09838,489.38326 L 741.76082,489.38326 L 749.99997,464.02577 z "
       id="path142" />
    <path
       style="fill:#cc0000;fill-opacity:1.0000000;fill-rule:evenodd;stroke:none;stroke-width:1.0000000pt;stroke-linecap:butt;stroke-linejoin:miter;stroke-opacity:1.0000000"
       d="M 749.99997,470.05583 L 756.88529,491.24665 L 779.16664,491.24665 L 761.14064,504.34330 L 768.02596,525.53412 L 749.99997,512.43747 L 731.97398,525.53412 L 738.85930,504.34330 L 720.83330,491.24665 L 743.11465,491.24665 L 749.99997,470.05583 z "
       id="path143" />
  </g>
</svg>
